X: 20454
T: The THREE GHOSTS
T: "THERE SAT THREE GHOSTS BY THE KIRKYARD SIDE."
C: Copyright.--J.M.
Q: "Moderate."
%R: jig
B: W. Hamilton "Universal Tune-Book" Vol. 2 Glasgow 1846 p.45 #4
S: http://s3-eu-west-1.amazonaws.com/itma.dl.printmaterial/book_pdfs/hamiltonvol2web.pdf
Z: 2016 John Chambers <jc:trillian.mit.edu>
M: 6/8
L: 1/8
K: D
%%stretchstaff 0
% - - - - - - - - - - - - - - - - - - - - - - - - -
A |\
AAA AAA | B2A G2F | EEE e2d | cez z2e |\
ffe d2c | cBB e2e | eac edB | cAz z2A |
g2e cBA | def A2A | AAA A2G | GFz z2E |\
EEE e2d | cde e2e | eee ede | efz zAA |\
A^GA Agc | edz z2 |]
% - - - - - - - - - - - - - - - - - - - - - - - - -

%%sep 1 1 500
%%sep 1 1 500

